2. Evclid/img/vk.svg

<svg fill="none" height="60" viewBox="0 0 60 60" width="60" xmlns="http://www.w3.org/2000/svg"><path d="m30 0c-16.568 0-30 13.4314-30 30s13.432 30 30 30 30-13.4314 30-30-13.432-30-30-30zm15.2176 33.2446c1.3983 1.3657 2.8775 2.6511 4.1328 4.158.5561.6666 1.0803 1.3559 1.4793 2.1311.5696 1.1055.0552 2.3178-.9343 2.3834l-6.146-.0012c-1.5874.1314-2.8506-.5088-3.9155-1.5941-.8502-.8648-1.6389-1.7886-2.4577-2.6829-.3346-.3671-.6869-.7127-1.1067-.9846-.8379-.545-1.5659-.3781-2.0459.4972-.4892.8906-.6009 1.8777-.6475 2.869-.0669 1.4492-.504 1.8279-1.9581 1.896-3.1071.1455-6.0552-.3259-8.7953-1.8924-2.4172-1.3816-4.2881-3.3317-5.9184-5.5396-3.1746-4.304-5.6059-9.0279-7.79044-13.8875-.49166-1.0944-.13197-1.68 1.07544-1.7027 2.0059-.0386 4.0118-.0337 6.0178-.0018.8163.0129 1.3565.48 1.6701 1.2503 1.084 2.667 2.4129 5.2045 4.0782 7.5579.4438.6267.8968 1.2515 1.5419 1.6941.712.4886 1.2546.3271 1.5904-.4677.2148-.5052.3075-1.0454.3541-1.5867.1596-1.8544.1787-3.7081-.0976-5.555-.1718-1.1558-.8218-1.9022-1.974-2.1207-.5868-.1111-.5008-.3284-.2154-.6636.4953-.5794.9594-.9379 1.8868-.9379l6.9441-.0012c1.0944.2148 1.3399.7059 1.4885 1.8083l.0061 7.7168c-.0129.4266.2142 1.6911.9803 1.9703.6138.2026 1.0189-.2897 1.3859-.6782 1.6653-1.7672 2.8518-3.8529 3.9143-6.0117.469-.952.8735-1.9372 1.2663-2.9242.2922-.7298.7464-1.0889 1.5701-1.0766l6.6869.008c.197 0 .3971.0018.5923.0356 1.127.1927 1.4357.6776 1.0871 1.777-.5488 1.7272-1.615 3.166-2.6572 4.6085-1.1171 1.5443-2.3086 3.0346-3.4146 4.5857-1.0165 1.4179-.9361 2.1318.3259 3.3631z" fill="#7c7c7c"/></svg>

<svg width="60" height="60" viewBox="0 0 60 60" fill="none" xmlns="http://www.w3.org/2000/svg">
<path d="M30 0C13.432 0 0 13.4314 0 30C0 46.5686 13.432 60 30 60C46.568 60 60 46.5686 60 30C60 13.4314 46.568 0 30 0ZM45.2176 33.2446C46.6159 34.6103 48.0951 35.8957 49.3504 37.4026C49.9065 38.0692 50.4307 38.7585 50.8297 39.5337C51.3993 40.6392 50.8849 41.8515 49.8954 41.9171L43.7494 41.9159C42.162 42.0473 40.8988 41.4071 39.8339 40.3218C38.9837 39.457 38.195 38.5332 37.3762 37.6389C37.0416 37.2718 36.6893 36.9262 36.2695 36.6543C35.4316 36.1093 34.7036 36.2762 34.2236 37.1515C33.7344 38.0421 33.6227 39.0292 33.5761 40.0205C33.5092 41.4697 33.0721 41.8484 31.618 41.9165C28.5109 42.062 25.5628 41.5906 22.8227 40.0241C20.4055 38.6425 18.5346 36.6924 16.9043 34.4845C13.7297 30.1805 11.2984 25.4566 9.11386 20.597C8.6222 19.5026 8.98189 18.917 10.1893 18.8943C12.1952 18.8557 14.2011 18.8606 16.2071 18.8925C17.0234 18.9054 17.5636 19.3725 17.8772 20.1428C18.9612 22.8098 20.2901 25.3473 21.9554 27.7007C22.3992 28.3274 22.8522 28.9522 23.4973 29.3948C24.2093 29.8834 24.7519 29.7219 25.0877 28.9271C25.3025 28.4219 25.3952 27.8817 25.4418 27.3404C25.6014 25.486 25.6205 23.6323 25.3442 21.7854C25.1724 20.6296 24.5224 19.8832 23.3702 19.6647C22.7834 19.5536 22.8694 19.3363 23.1548 19.0011C23.6501 18.4217 24.1142 18.0632 25.0416 18.0632L31.9857 18.062C33.0801 18.2768 33.3256 18.7679 33.4742 19.8703L33.4803 27.5871C33.4674 28.0137 33.6945 29.2782 34.4606 29.5574C35.0744 29.76 35.4795 29.2677 35.8465 28.8792C37.5118 27.112 38.6983 25.0263 39.7608 22.8675C40.2298 21.9155 40.6343 20.9303 41.0271 19.9433C41.3193 19.2135 41.7735 18.8544 42.5972 18.8667L49.2841 18.8747C49.4811 18.8747 49.6812 18.8765 49.8764 18.9103C51.0034 19.103 51.3121 19.5879 50.9635 20.6873C50.4147 22.4145 49.3485 23.8533 48.3063 25.2958C47.1892 26.8401 45.9977 28.3304 44.8917 29.8815C43.8752 31.2994 43.9556 32.0133 45.2176 33.2446Z" fill="#7C7C7C"/>
</svg>
